world_stage/static/flags/rect/gnb.svg

<svg height="800" viewBox="0 0 1198.6667 800" width="1198.6667" xmlns="http://www.w3.org/2000/svg"><g transform="matrix(1.3333333 0 0 -1.3333333 0 800)"><path d="m0 0h314v600h-314z" fill="#ce1126"/><path d="m314 300h585v300.001h-585z" fill="#fcd116"/><path d="m314 0h585v300h-585z" fill="#009e49"/></g><path d="m0 0 58.778 42.706h-72.654l-22.451 69.098-22.451-69.098h-72.655l58.779-42.706-22.451-69.098 58.778 42.705 58.778-42.705z" transform="matrix(1.3333333 0 0 -1.3333333 257.76947 415.73827)"/></svg>

<?xml version="1.0" encoding="UTF-8" standalone="no"?>
<!-- Created with Inkscape (http://www.inkscape.org/) -->

<svg
   version="1.1"
   id="svg1"
   width="1198.6667"
   height="800"
   viewBox="0 0 1198.6667 800"
   sodipodi:docname="gw.ai"
   xmlns:inkscape="http://www.inkscape.org/namespaces/inkscape"
   xmlns:sodipodi="http://sodipodi.sourceforge.net/DTD/sodipodi-0.dtd"
   xmlns="http://www.w3.org/2000/svg"
   xmlns:svg="http://www.w3.org/2000/svg">
  <defs
     id="defs1" />
  <sodipodi:namedview
     id="namedview1"
     pagecolor="#ffffff"
     bordercolor="#000000"
     borderopacity="0.25"
     inkscape:showpageshadow="2"
     inkscape:pageopacity="0.0"
     inkscape:pagecheckerboard="0"
     inkscape:deskcolor="#d1d1d1">
    <inkscape:page
       x="0"
       y="0"
       inkscape:label="1"
       id="page1"
       width="1198.6667"
       height="800"
       margin="0"
       bleed="0" />
  </sodipodi:namedview>
  <g
     id="layer-MC0"
     inkscape:groupmode="layer"
     inkscape:label="Layer 1">
    <path
       id="path1"
       d="M 0,0 H 314 V 600 H 0 Z"
       style="fill:#ce1126;fill-opacity:1;fill-rule:nonzero;stroke:none"
       transform="matrix(1.3333333,0,0,-1.3333333,0,800)" />
    <path
       id="path2"
       d="M 314,300 H 899 V 600.001 H 314 Z"
       style="fill:#fcd116;fill-opacity:1;fill-rule:nonzero;stroke:none"
       transform="matrix(1.3333333,0,0,-1.3333333,0,800)" />
    <path
       id="path3"
       d="M 314,0 H 899 V 300 H 314 Z"
       style="fill:#009e49;fill-opacity:1;fill-rule:nonzero;stroke:none"
       transform="matrix(1.3333333,0,0,-1.3333333,0,800)" />
    <path
       id="path4"
       d="m 0,0 58.778,42.706 h -72.654 l -22.451,69.098 -22.451,-69.098 h -72.655 L -72.654,0 l -22.451,-69.098 58.778,42.705 58.778,-42.705 z"
       style="fill:#000000;fill-opacity:1;fill-rule:nonzero;stroke:none"
       transform="matrix(1.3333333,0,0,-1.3333333,257.76947,415.73827)" />
  </g>
</svg>
